img/social/Ок.svg

<svg width="50" height="50" viewBox="0 0 50 50" fill="none" xmlns="http://www.w3.org/2000/svg">
<rect width="50" height="50" rx="12" fill="#F96600"/>
<path d="M23.3686 32.2446C20.7836 31.9776 18.4532 31.3446 16.4592 29.8025C16.2107 29.6105 15.9562 29.4245 15.7289 29.2025C14.8561 28.3715 14.7683 27.4205 15.4592 26.4424C16.0501 25.6024 17.0411 25.3774 18.0744 25.8604C18.2729 25.9598 18.4633 26.0742 18.6442 26.2024C20.492 27.4457 22.6701 28.1199 24.9042 28.1402C27.1383 28.1605 29.3286 27.5259 31.1991 26.3164C31.5566 26.0296 31.9689 25.8174 32.4113 25.6924C32.8227 25.572 33.263 25.592 33.6615 25.7493C34.0599 25.9065 34.3934 26.1919 34.6083 26.5594C35.1538 27.4415 35.1477 28.2995 34.475 28.9835C33.4438 30.016 32.1977 30.8135 30.8234 31.3206C29.4854 31.7965 28.0928 32.1058 26.6778 32.2416C26.8899 32.4726 26.9808 32.5836 27.1263 32.7156C29.0445 34.6267 30.9718 36.5287 32.884 38.4428C33.1887 38.717 33.3953 39.0816 33.4729 39.4818C33.5505 39.8821 33.4948 40.2965 33.3144 40.6629C33.1305 41.0644 32.8313 41.4035 32.4541 41.6377C32.0768 41.8719 31.6382 41.9909 31.1931 41.9799C30.6723 41.9291 30.1904 41.6847 29.8445 41.2959C28.396 39.8528 26.9202 38.4368 25.502 36.9668C25.0898 36.5407 24.8959 36.6217 24.5262 36.9908C23.0686 38.4908 21.5867 39.9399 20.0988 41.3919C19.8225 41.695 19.4523 41.8987 19.0464 41.9709C18.6405 42.0432 18.2219 41.9798 17.8562 41.7909C17.4601 41.6078 17.1259 41.3153 16.8936 40.9486C16.6614 40.5819 16.5411 40.1566 16.5471 39.7238C16.5909 39.189 16.843 38.692 17.2502 38.3378C19.1533 36.4597 21.0503 34.5807 22.9413 32.7006C23.0685 32.5716 23.1898 32.4366 23.3686 32.2446Z" fill="white"/>
<path d="M24.9413 25.7044C23.2702 25.6947 21.6396 25.194 20.2564 24.2656C18.8731 23.3372 17.7995 22.0231 17.1718 20.4898C16.544 18.9565 16.3903 17.2732 16.7303 15.6534C17.0702 14.0335 17.8884 12.5501 19.0811 11.3912C20.2738 10.2324 21.7873 9.45031 23.4296 9.14421C25.0719 8.8381 26.769 9.02176 28.3058 9.67188C29.8425 10.322 31.1496 11.4093 32.0612 12.7959C32.9729 14.1824 33.4481 15.8058 33.4265 17.4601C33.3961 19.6644 32.4874 21.7675 30.8982 23.3116C29.309 24.8556 27.168 25.7157 24.9413 25.7044ZM29.1324 17.3431C29.13 16.5345 28.8852 15.7447 28.4292 15.0738C27.9731 14.4029 27.3262 13.8811 26.5704 13.5744C25.8146 13.2677 24.9839 13.1899 24.1834 13.3508C23.3829 13.5118 22.6487 13.9043 22.0736 14.4786C21.4986 15.053 21.1086 15.7833 20.9531 16.5772C20.7976 17.3711 20.8835 18.1928 21.1999 18.9383C21.5164 19.6838 22.0492 20.3196 22.7309 20.7651C23.4125 21.2107 24.2124 21.446 25.0292 21.4413C25.5708 21.4401 26.1068 21.333 26.6064 21.1262C27.1061 20.9194 27.5596 20.6169 27.9408 20.2361C28.3221 19.8554 28.6236 19.4038 28.8281 18.9073C29.0326 18.4108 29.136 17.8793 29.1324 17.3431Z" fill="white"/>
</svg>

<svg width="50" height="50" fill="none" xmlns="http://www.w3.org/2000/svg"><rect width="50" height="50" rx="12" fill="#F96600"/><path d="M23.369 32.245c-2.585-.267-4.916-.9-6.91-2.442-.248-.193-.503-.379-.73-.6-.873-.831-.96-1.782-.27-2.76.591-.84 1.582-1.066 2.615-.583.199.1.39.214.57.342a11.401 11.401 0 0 0 6.26 1.938c2.234.02 4.425-.614 6.295-1.824.358-.286.77-.499 1.212-.624.412-.12.852-.1 1.25.057.399.158.732.443.947.81.546.883.54 1.74-.133 2.424a10.103 10.103 0 0 1-3.652 2.338c-1.338.476-2.73.785-4.145.92.212.232.303.343.448.475 1.918 1.91 3.846 3.813 5.758 5.727a1.868 1.868 0 0 1 .43 2.22c-.184.401-.483.74-.86.975a2.285 2.285 0 0 1-1.26.342 2.074 2.074 0 0 1-1.35-.684c-1.448-1.443-2.924-2.86-4.342-4.33-.412-.425-.606-.344-.976.025a234.48 234.48 0 0 1-4.427 4.4 1.877 1.877 0 0 1-2.243.399 2.263 2.263 0 0 1-.962-.841 2.231 2.231 0 0 1-.347-1.225 2.06 2.06 0 0 1 .703-1.386c1.903-1.878 3.8-3.757 5.691-5.637.128-.13.249-.264.428-.456Z" fill="#fff"/><path d="M24.941 25.704a8.497 8.497 0 0 1-4.685-1.438 8.368 8.368 0 0 1-3.084-3.776 8.273 8.273 0 0 1-.442-4.837 8.329 8.329 0 0 1 2.351-4.262 8.466 8.466 0 0 1 4.349-2.247 8.515 8.515 0 0 1 4.876.528 8.416 8.416 0 0 1 3.755 3.124 8.29 8.29 0 0 1 1.365 4.664 8.318 8.318 0 0 1-2.528 5.852 8.488 8.488 0 0 1-5.957 2.392Zm4.191-8.36a4.058 4.058 0 0 0-.703-2.27 4.12 4.12 0 0 0-1.859-1.5 4.167 4.167 0 0 0-2.387-.223 4.14 4.14 0 0 0-2.11 1.128 4.074 4.074 0 0 0-1.12 2.098 4.049 4.049 0 0 0 .247 2.361c.316.746.85 1.382 1.53 1.827.683.446 1.482.681 2.3.676a4.149 4.149 0 0 0 2.91-1.205 4.035 4.035 0 0 0 1.192-2.893Z" fill="#fff"/></svg>
